X: 4
T: Saint Patrick's Day
R: jig
M: 6/8
L: 1/8
K: Gmaj
|: D |G>AG GBc | d>ed dBG | A>GA BGD | E>FE E2 D |
G>AG GBc | d>ed dBG | A>GA BGD | E2 F G2- :|
|: G |d>ef g2 e | f2 d e2 d | d>ef g2 e | f2 d e3 |
d>ef g2 e | f2 d e2 d | d>BG GBc | d>ed dBG |
A>GA BGD | E>FE E2 D | G>AG GBc | d>ed dBG | A>GA BGD | E2 F G2 :|


Tune 385	Setting 13217

